packages/icons/svg/Fill/arrow-ios-left.svg

<svg width="24" height="24" viewBox="0 0 24 24" fill="none" xmlns="http://www.w3.org/2000/svg">
<g id="Icon/Fill/arrow-ios-left">
<path id="Mask" fill-rule="evenodd" clip-rule="evenodd" d="M13.8287 19C13.5367 19 13.2467 18.873 13.0487 18.627L8.22066 12.627C7.92266 12.256 7.92666 11.726 8.23166 11.36L13.2317 5.35998C13.5847 4.93598 14.2157 4.87898 14.6407 5.23198C15.0647 5.58498 15.1217 6.21598 14.7677 6.63998L10.2927 12.011L14.6077 17.373C14.9537 17.803 14.8857 18.433 14.4547 18.779C14.2707 18.928 14.0487 19 13.8287 19Z" fill="#000000"/>
</g>
</svg>

<svg fill="none" height="24" viewBox="0 0 24 24" width="24" xmlns="http://www.w3.org/2000/svg"><path clip-rule="evenodd" d="m13.8286 19c-.292 0-.582-.127-.78-.373l-4.82803-6c-.298-.371-.294-.901.011-1.267l5.00003-6.00002c.353-.424.984-.481 1.409-.128.424.353.481.984.127 1.408l-4.475 5.37102 4.315 5.362c.346.43.278 1.06-.153 1.406-.184.149-.406.221-.626.221" fill="#6b7280" fill-rule="evenodd"/></svg>
